dist/luts/autumn.3dl
# Converted by LutConverter
0 68 136 204 272 341 409 477 545 613 682 750 818 886 954 1023
8 4 8
20 12 56
40 8 112
84 8 188
156 0 264
264 0 340
380 0 404
484 0 460
576 0 516
636 0 552
688 0 576
736 0 600
764 0 624
788 0 644
808 0 656
832 0 668
12 60 16
8 60 72
12 64 124
12 64 188
16 64 248
40 60 320
76 48 384
120 36 432
184 20 484
268 16 536
360 0 572
456 0 592
556 0 612
676 0 644
740 0 664
768 0 672
8 104 24
0 104 84
0 104 136
0 108 200
0 112 264
0 112 332
24 112 400
68 104 448
116 100 500
172 84 552
240 68 592
316 44 620
400 32 648
460 4 668
524 0 688
592 0 708
0 152 36
0 152 96
0 156 148
0 160 216
0 168 284
0 172 352
0 172 420
12 172 472
64 168 524
120 160 572
184 156 616
252 148 644
328 140 672
404 120 700
460 100 724
516 64 744
0 204 48
0 204 108
0 216 168
0 220 236
0 228 300
0 232 368
0 240 444
0 240 496
4 240 548
44 240 600
124 240 644
196 236 672
268 232 700
352 228 732
424 220 756
476 200 776
0 260 60
0 268 120
0 276 180
0 288 256
0 296 320
0 300 392
0 308 460
0 312 516
0 316 568
0 316 624
24 316 664
124 320 696
212 324 728
296 320 756
380 320 784
448 312 812
0 316 72
0 328 136
0 336 196
0 348 272
0 356 336
0 368 408
0 380 484
0 384 536
0 392 592
0 400 648
0 404 692
8 408 724
128 408 752
232 408 780
328 412 812
420 412 840
0 368 84
0 380 152
0 392 216
0 404 284
0 412 348
0 424 424
0 440 500
0 444 552
0 456 608
0 464 660
0 468 708
0 476 740
4 484 772
148 488 800
264 496 832
360 500 864
0 412 104
0 428 172
0 440 232
0 452 300
0 468 368
0 480 440
0 492 512
0 508 568
0 516 620
0 524 676
0 536 724
0 544 756
0 548 788
28 560 816
184 564 848
300 572 876
0 460 128
0 468 192
0 484 252
0 496 316
0 508 380
0 524 456
0 540 524
0 556 580
0 568 636
0 580 692
0 592 736
0 600 768
0 612 800
0 620 832
72 632 860
228 640 892
0 500 152
0 516 216
0 528 276
0 540 332
0 552 396
0 572 472
0 584 536
0 596 592
0 612 648
0 624 704
0 636 744
0 644 776
0 656 808
0 668 840
0 680 872
136 692 904
0 540 184
0 552 244
0 564 296
0 580 352
0 596 420
0 616 488
0 632 552
0 640 604
0 656 656
0 668 712
0 680 756
0 692 788
0 700 816
0 712 848
0 728 880
24 740 912
0 568 216
0 584 276
0 596 320
0 608 372
0 628 436
0 644 504
0 660 560
0 676 616
0 692 668
0 712 728
0 724 764
0 736 796
0 748 828
0 760 860
0 772 888
0 788 920
0 600 252
0 612 304
0 624 344
0 636 396
0 652 456
0 668 520
0 684 572
0 704 628
0 716 680
0 732 732
0 748 772
0 760 800
0 776 832
0 792 864
0 808 896
0 824 924
0 628 284
0 640 328
0 648 368
0 664 420
0 680 476
0 696 536
0 708 584
0 724 636
0 740 688
0 756 744
0 772 780
0 784 808
0 796 836
0 816 872
0 828 900
0 848 932
0 656 316
0 668 356
0 676 396
0 688 440
0 708 500
0 720 552
0 736 600
0 748 648
0 764 700
0 780 752
0 792 784
0 804 812
0 820 844
0 836 876
0 852 904
0 872 936
64 12 12
136 16 44
212 12 100
288 4 180
372 0 260
448 0 336
528 0 400
596 0 452
644 0 508
688 0 548
728 0 576
760 0 596
780 0 620
804 0 640
824 0 656
840 0 664
44 56 16
44 60 60
48 64 108
60 68 172
72 68 240
100 64 308
136 52 380
188 40 432
256 24 484
340 16 536
416 0 576
500 0 596
584 0 612
672 0 632
760 0 664
784 0 672
40 96 20
40 104 72
36 104 116
36 112 180
48 116 256
64 116 324
96 116 400
132 112 452
176 104 500
236 88 552
308 68 596
380 44 624
440 32 652
500 8 672
564 0 692
624 0 708
32 148 28
24 152 84
16 156 132
12 160 196
16 168 272
24 172 340
44 176 416
84 176 472
128 168 520
184 168 576
244 156 620
312 148 648
388 140 680
440 120 700
492 96 724
548 56 740
8 200 36
0 208 96
0 216 152
0 224 216
0 232 288
0 236 360
0 244 440
12 248 492
64 248 544
128 244 600
192 244 648
260 244 680
336 240 708
408 232 736
460 220 756
512 204 780
0 260 44
0 268 104
0 276 164
0 288 236
0 296 304
0 304 380
0 316 460
0 320 516
0 320 568
40 324 624
112 324 672
204 328 704
280 328 732
360 328 764
428 324 788
484 316 816
0 316 60
0 324 120
0 336 180
0 348 252
0 360 324
0 372 396
0 384 480
0 392 532
0 400 592
0 404 644
36 408 696
104 412 728
216 412 756
304 420 788
384 416 816
452 416 840
0 372 72
0 384 136
0 392 200
0 404 272
0 420 340
0 432 416
0 448 496
0 456 552
0 464 604
0 472 664
0 476 712
0 484 744
128 492 776
236 496 804
332 504 836
420 508 868
0 416 88
0 432 156
0 444 220
0 456 288
0 472 356
0 488 432
0 504 508
0 516 568
0 524 620
0 536 680
0 544 724
0 552 760
0 556 792
136 568 824
272 572 852
372 584 884
0 460 112
0 476 180
0 488 244
0 504 308
0 520 376
0 536 448
0 552 524
0 560 576
0 576 636
0 584 688
0 596 740
0 608 772
0 620 804
56 628 836
176 640 868
312 648 896
0 504 140
0 520 204
0 532 264
0 548 324
0 560 392
0 580 464
0 596 536
0 608 588
0 620 644
0 636 704
0 644 748
0 652 780
0 664 812
0 680 844
92 688 876
248 704 908
0 548 172
0 564 232
0 576 288
0 592 348
0 608 412
0 624 484
0 636 548
0 652 600
0 664 656
0 676 712
0 692 760
0 700 792
0 712 820
0 724 852
16 736 884
164 748 912
0 576 204
0 592 264
0 604 312
0 620 368
0 636 432
0 656 504
0 672 560
0 684 612
0 700 668
0 720 724
0 736 768
0 748 800
0 756 832
0 772 864
0 780 892
44 796 924
0 608 244
0 624 296
0 636 340
0 644 388
0 664 452
0 680 516
0 696 572
0 712 624
0 728 676
0 744 732
0 756 776
0 772 804
0 784 836
0 804 868
0 816 896
0 836 932
0 636 280
0 648 320
0 660 360
0 672 412
0 688 472
0 704 532
0 724 588
0 736 636
0 752 688
0 768 744
0 780 780
0 796 812
0 808 844
0 824 872
0 840 904
0 860 936
0 664 308
0 676 348
0 688 388
0 700 436
0 716 492
0 732 552
0 744 596
0 760 648
0 776 700
0 788 752
0 804 788
0 816 820
0 832 848
0 844 876
0 864 908
0 880 940
132 20 12
204 12 36
284 8 84
396 0 160
520 0 244
564 0 324
620 0 396
656 0 448
700 0 500
732 0 544
760 0 572
780 0 592
800 0 616
820 0 640
836 0 656
844 0 664
80 64 16
92 68 56
100 68 96
116 76 160
136 76 236
168 72 304
208 56 376
264 44 432
332 24 488
400 12 536
464 0 576
536 0 596
604 0 616
676 0 632
772 0 660
788 0 672
72 100 16
80 108 64
88 112 112
92 116 172
108 124 252
124 124 320
152 120 392
196 116 452
244 108 504
308 92 556
376 68 604
424 40 628
484 28 652
540 4 672
600 0 692
648 0 708
72 152 20
72 156 76
72 160 124
68 164 188
76 172 264
92 176 336
116 180 412
152 180 468
196 176 520
248 172 576
308 160 624
376 156 656
432 140 680
480 120 700
532 96 728
584 52 744
56 208 32
48 212 88
40 216 140
32 224 204
32 236 284
40 244 356
60 248 432
100 252 492
148 252 544
200 252 600
260 252 652
324 244 680
392 240 712
444 232 736
496 220 760
544 204 780
20 268 40
8 276 100
0 284 156
0 292 224
0 304 300
0 312 372
0 320 456
12 324 512
72 328 568
140 332 624
204 332 672
272 332 704
344 332 736
416 332 768
464 324 788
516 316 816
0 324 48
0 332 112
0 340 172
0 356 244
0 368 320
0 380 396
0 392 472
0 400 536
0 408 588
36 412 644
112 420 700
204 420 728
292 420 760
368 424 792
432 424 820
492 420 844
0 376 60
0 388 128
0 400 192
0 412 260
0 428 336
0 440 408
0 456 492
0 464 552
0 472 604
0 480 660
8 488 716
108 492 748
224 500 780
316 508 812
396 512 840
456 512 868
0 424 76
0 436 144
0 452 212
0 468 284
0 484 352
0 500 428
0 512 508
0 524 564
0 532 620
0 540 676
0 552 732
0 560 764
136 568 796
252 576 828
344 580 856
424 584 884
0 468 100
0 480 168
0 496 232
0 512 300
0 524 364
0 544 444
0 560 520
0 572 576
0 584 632
0 596 692
0 608 744
0 620 776
12 628 808
148 640 840
280 648 872
380 656 900
0 512 128
0 528 192
0 544 256
0 556 320
0 572 384
0 592 460
0 604 536
0 616 588
0 632 644
0 640 700
0 656 752
0 668 788
0 672 816
68 688 848
204 696 880
332 712 912
0 556 160
0 572 224
0 584 280
0 600 336
0 616 404
0 632 476
0 652 548
0 660 600
0 676 656
0 688 712
0 700 764
0 708 792
0 724 824
0 732 856
120 744 888
272 756 916
0 588 196
0 604 256
0 620 308
0 628 360
0 648 424
0 664 496
0 680 556
0 700 612
0 712 668
0 728 724
0 744 772
0 756 804
0 768 836
0 780 864
72 792 896
204 808 928
0 616 232
0 628 284
0 644 332
0 656 384
0 672 444
0 692 512
0 708 568
0 720 620
0 736 676
0 756 736
0 772 780
0 780 808
0 800 844
0 812 872
0 828 900
108 848 936
0 648 268
0 660 316
0 672 360
0 684 408
0 700 468
0 716 528
0 732 584
0 748 636
0 760 688
0 776 744
0 792 784
0 808 816
0 824 848
0 836 876
0 852 908
44 868 936
0 676 304
0 688 344
0 700 384
0 712 432
0 728 492
0 740 548
0 752 596
0 768 648
0 788 700
0 800 752
0 812 788
0 828 820
0 844 852
0 856 880
0 876 912
0 888 940
228 20 4
304 8 28
352 0 68
412 0 132
520 0 220
636 0 308
692 0 388
724 0 444
748 0 492
768 0 544
784 0 568
800 0 592
820 0 612
836 0 636
844 0 652
852 0 664
132 72 12
152 76 52
168 80 92
192 84 152
216 84 228
256 76 300
308 64 376
360 44 436
412 24 488
464 16 536
520 0 576
584 0 600
628 0 616
684 0 632
756 0 656
800 0 672
124 108 12
136 112 60
144 120 104
156 124 168
176 128 244
200 128 312
236 132 392
280 124 452
336 112 508
388 92 556
432 64 604
480 40 632
532 24 652
588 0 676
636 0 692
672 0 712
120 160 16
124 164 68
132 168 120
140 176 180
148 180 256
168 188 332
196 188 404
232 188 472
276 184 524
332 176 580
388 168 628
436 156 656
480 140 684
528 120 704
576 92 728
628 48 748
112 212 20
112 220 80
112 224 132
120 236 200
120 244 276
132 252 348
156 256 424
192 260 492
236 260 548
284 256 600
344 260 656
404 252 688
448 244 712
492 232 736
536 220 760
588 204 784
92 276 32
92 284 92
88 292 148
80 300 216
72 312 292
84 320 368
100 328 448
140 336 516
184 340 572
232 340 624
292 340 676
356 344 716
420 340 740
464 332 768
512 328 792
556 320 816
60 336 40
48 340 100
32 352 160
8 364 232
0 376 308
0 388 384
0 400 468
40 412 532
104 416 588
172 424 648
236 424 700
304 432 736
376 432 768
436 428 796
484 424 820
532 424 844
12 388 48
8 400 116
0 408 176
0 424 252
0 436 328
0 452 404
0 464 484
0 472 548
12 484 608
68 488 660
164 500 716
244 504 756
320 508 784
400 516 816
452 516 844
500 516 868
0 436 60
0 452 136
0 464 200
0 476 272
