dist/luts/autumn.3dl
# Converted by LutConverter
0 204 409 613 818 1023
8 4 8
84 8 188
380 0 404
636 0 552
764 0 624
832 0 668
0 152 36
0 160 216
0 172 420
120 160 572
328 140 672
516 64 744
0 316 72
0 348 272
0 380 484
0 400 648
128 408 752
420 412 840
0 460 128
0 496 316
0 540 524
0 580 692
0 612 800
228 640 892
0 568 216
0 608 372
0 660 560
0 712 728
0 748 828
0 788 920
0 656 316
0 688 440
0 736 600
0 780 752
0 820 844
0 872 936
228 20 4
412 0 132
692 0 388
768 0 544
820 0 612
852 0 664
120 160 16
140 176 180
196 188 404
332 176 580
480 140 684
628 48 748
60 336 40
8 364 232
0 400 468
172 424 648
376 432 768
532 424 844
0 480 84
0 524 292
0 568 516
0 608 692
184 640 812
436 660 900
0 604 184
0 644 352
0 700 560
0 744 724
0 780 836
324 816 932
0 688 296
0 720 424
0 768 596
0 812 752
0 860 856
188 900 944
512 0 0
596 0 96
672 0 324
808 0 508
856 0 604
868 0 660
392 200 0
440 204 152
496 208 388
576 184 572
676 132 688
728 28 744
352 388 0
392 416 196
452 452 452
508 456 644
600 448 772
712 436 852
308 540 0
312 580 256
344 628 500
440 664 692
524 676 824
632 680 904
240 664 120
216 708 324
216 760 548
324 804 724
440 824 848
556 840 932
144 748 256
104 780 400
88 832 592
224 876 752
376 912 868
492 936 952
656 0 0
712 0 64
764 0 308
796 0 484
840 0 584
884 0 656
652 220 0
688 212 108
720 208 364
756 184 560
792 128 688
832 20 748
648 436 0
684 448 140
724 472 420
768 476 632
796 460 772
836 440 848
632 600 0
652 628 196
676 668 468
720 696 676
784 700 824
828 696 904
608 736 0
616 776 284
624 812 516
660 840 712
716 856 852
804 868 936
580 820 184
576 852 364
580 896 580
608 924 744
660 948 868
744 972 956
748 0 0
784 0 44
820 0 292
844 0 476
868 0 604
872 0 648
784 232 0
816 216 64
856 216 340
872 192 548
884 140 688
892 52 748
832 452 0
856 464 80
880 480 392
896 484 612
920 472 768
948 452 844
860 632 0
876 656 128
888 688 436
900 708 660
920 708 820
948 700 900
872 776 0
872 804 220
876 840 488
884 864 692
900 872 848
924 872 928
844 864 68
852 896 324
856 932 548
860 960 724
872 976 868
896 984 948
812 8 0
840 0 20
876 0 280
892 0 480
896 0 612
900 0 668
872 252 0
896 240 28
920 236 324
932 212 536
944 172 684
948 104 748
948 468 0
964 476 12
984 492 368
992 496 596
996 484 760
1004 464 836
976 640 0
996 664 48
1012 696 408
1020 712 640
1020 712 808
1020 708 892
988 784 0
996 812 164
1000 844 456
1012 868 672
1020 880 840
1020 880 920
980 880 0
984 908 284
984 944 516
988 968 704
1000 992 860
1020 1000 944
