dist/luts/pink.3dl
#Created by: Adobe Photoshop Export Color Lookup Plugin
#Description: lut to 3dl test.psd
0 33 66 99 132 165 198 231 264 297 330 363 396 429 462 495 528 561 594 627 660 693 726 759 792 825 858 891 924 957 990 1023
4095 3209 3843
4095 3209 3843
4095 3209 3843
4095 3209 3843
4095 3209 3843
4095 3209 3843
4095 3209 3843
4095 3209 3843
4095 3209 3843
4095 3209 3843
4095 3209 3843
4095 3209 3843
4095 3209 3843
4095 3209 3843
4095 3209 3843
4095 3209 3843
4095 3209 3843
4095 3209 3843
4095 3209 3843
4095 3209 3843
4095 3209 3843
4095 3209 3843
4095 3209 3843
4095 3209 3843
4095 3209 3843
4095 3209 3843
4095 3209 3843
4095 3209 3843
4095 3209 3843
4095 3209 3843
4095 3209 3843
4095 3209 3843
4095 3209 3843
4095 3209 3843
4095 3209 3843
4095 3209 3843
4095 3209 3843
4095 3209 3843
4095 3209 3843
4095 3209 3843
4095 3209 3843
4095 3209 3843
4095 3209 3843
4095 3209 3843
4095 3209 3843
4095 3209 3843
4095 3209 3843
4095 3209 3843
4095 3209 3843
4095 3209 3843
4095 3209 3843
4095 3209 3843
4095 3209 3843
4095 3209 3843
4095 3209 3843
4095 3209 3843
4095 3209 3843
4095 3209 3843
4095 3209 3843
4095 3209 3843
4095 3209 3843
4095 3209 3843
4095 3209 3843
4095 3209 3843
4095 3209 3843
4095 3209 3843
4095 3209 3843
4095 3207 3842
4095 3206 3841
4094 3213 3846
4093 3225 3853
4091 3235 3856
4088 3251 3847
4089 3245 3837
4095 3191 3835
4095 3111 3828
4095 2963 3798
4095 2805 3750
4095 2638 3703
4095 2533 3697
4095 2503 3703
4095 2462 3693
4095 2459 3676
4095 2429 3655
4095 2376 3642
4095 2347 3636
4095 2362 3635
4095 2412 3644
4095 2497 3674
4095 2585 3709
4095 2618 3722
4095 2589 3713
4095 2487 3682
4095 2326 3636
4095 2186 3588
4095 2095 3543
4095 2093 3533
4095 2145 3549
4095 2248 3603
4095 2317 3623
4095 2257 3586
4095 2121 3495
4095 1978 3429
4095 1891 3404
4095 1872 3408
4095 1931 3437
4095 2044 3481
4095 2153 3537
4095 2226 3576
4095 2235 3574
4095 2194 3539
4095 2060 3459
4095 1845 3383
4095 1644 3286
4072 1456 3140
4058 1358 3050
4021 1343 3033
4063 1400 3104
4069 1509 3207
4085 1573 3255
4095 1614 3272
4095 1664 3295
4095 1689 3306
4095 1691 3309
4095 1676 3313
4090 1631 3291
4072 1546 3221
4064 1460 3142
4065 1445 3122
4068 1509 3168
4086 1593 3239
4095 1666 3301
4095 1716 3348
4095 1726 3372
4095 1695 3364
4095 1688 3354
4095 1704 3342
4095 1727 3340
4095 1761 3369
4095 1769 3387
4095 1710 3362
4095 1620 3311
4070 1491 3191
4028 1366 3043
3898 1289 2915
3786 1234 2817
3764 1235 2817
3871 1304 2921
4037 1418 3062
4086 1591 3230
4095 1737 3335
4095 1815 3373
4095 1808 3376
4095 1725 3343
4095 1630 3289
4084 1562 3243
4077 1541 3221
4084 1580 3233
4095 1655 3271
4095 1723 3312
4095 1767 3346
4095 1778 3356
4095 1748 3331
4095 1706 3306
4095 1674 3299
4095 1656 3305
4095 1654 3322
4095 1670 3344
4095 1711 3366
4095 1772 3374
4095 1787 3370
4095 1751 3372
4095 1664 3339
4075 1515 3224
4030 1368 3080
3959 1310 3008
4017 1348 3046
4070 1460 3143
4090 1555 3222
4095 1634 3275
4095 1687 3314
4095 1685 3318
4095 1667 3310
4095 1641 3293
4092 1617 3276
4092 1604 3267
4095 1610 3271
4095 1662 3311
4095 1743 3373
4095 1774 3387
4095 1746 3379
4095 1647 3316
4070 1463 3173
3963 1288 3019
3895 1248 2965
3988 1334 3028
4070 1501 3159
4095 1639 3275
4095 1742 3356
4095 1775 3370
4095 1723 3340
4095 1667 3303
4095 1629 3280
4095 1606 3275
4095 1599 3298
4095 1622 3334
4095 1693 3363
4095 1779 3365
4095 1823 3361
4095 1813 3364
4095 1746 3349
4095 1618 3262
4080 1510 3176
4076 1497 3170
4092 1577 3244
4095 1673 3313
4095 1729 3339
4095 1743 3339
4095 1698 3320
4095 1621 3288
4090 1584 3269
4091 1594 3273
4095 1620 3288
4095 1646 3307
4095 1668 3323
4095 1684 3326
4095 1686 3318
4095 1671 3310
4095 1646 3306
4091 1619 3296
4087 1594 3273
4089 1585 3262
4095 1608 3287
4095 1651 3328
4095 1677 3344
4095 1675 3330
4095 1648 3294
4095 1589 3240
4084 1546 3199
4091 1582 3230
4095 1672 3308
4095 1753 3380
4095 1782 3405
4095 1774 3408
4095 1745 3390
4095 1697 3339
4095 1638 3277
4092 1593 3235
4089 1580 3222
4094 1599 3251
4095 1654 3300
4095 1741 3354
4095 1813 3375
4095 1804 3365
4095 1725 3321
4092 1594 3231
4066 1461 3115
3999 1376 3038
4012 1388 3052
4066 1487 3141
4086 1581 3229
4095 1640 3277
4095 1668 3303
4095 1652 3302
4091 1611 3280
4085 1588 3260
4084 1581 3246
4092 1611 3267
4095 1671 3310
4095 1741 3365
4095 1797 3401
4095 1817 3417
4095 1791 3409
4095 1728 3371
4095 1655 3309
4086 1593 3260
4086 1583 3250
4095 1658 3295
4095 1773 3362
4095 1859 3388
4095 1892 3402
4095 1848 3393
4095 1742 3365
4095 1615 3290
4076 1528 3215
4070 1499 3179
4073 1513 3174
4087 1571 3208
4095 1634 3249
4095 1651 3268
4095 1652 3280
4095 1661 3293
4095 1667 3298
4095 1734 3344
4095 1815 3382
4095 1938 3429
4095 2065 3484
4095 2145 3532
4095 2214 3559
4095 2233 3549
4095 2188 3517
4095 2104 3484
4095 1972 3451
4095 1844 3416
4095 1765 3393
4095 1702 3358
4095 1705 3348
4095 1693 3320
4095 1669 3282
4087 1632 3242
4076 1565 3205
4069 1506 3189
4068 1469 3178
4070 1476 3185
4075 1503 3195
4078 1540 3201
4081 1572 3205
4083 1576 3212
4083 1555 3216
4076 1520 3187
4071 1490 3137
4068 1440 3078
4049 1391 3033
4019 1359 3017
4023 1320 3031
4059 1296 3070
4072 1313 3116
4072 1363 3147
4070 1416 3160
4069 1445 3156
4067 1444 3129
4066 1414 3086
4054 1367 3042
4020 1349 3022
3960 1336 3010
4000 1401 3072
4072 1572 3209
4095 1792 3358
4095 2089 3475
4095 2288 3600
4095 2476 3682
4095 2567 3710
4095 2577 3709
4095 2580 3715
4095 2546 3713
4095 2511 3703
4095 2486 3687
4095 2485 3682
4095 2513 3697
4095 2555 3718
4095 2588 3733
4095 2604 3737
4095 2624 3742
4095 2634 3742
4095 2644 3741
4095 2650 3734
4095 2659 3731
4095 2690 3753
4095 2724 3785
4095 2759 3802
4095 2783 3793
4095 2786 3780
4095 2766 3770
4095 2733 3762
4095 2706 3749
4095 2696 3739
4095 2691 3735
4095 2693 3739
4095 2699 3747
4095 2697 3751
4095 2695 3753
4095 2715 3766
4095 2745 3781
4095 2778 3787
4095 2795 3786
4095 2806 3785
4095 2825 3792
4095 2835 3799
4095 2810 3799
4095 2766 3792
4095 2697 3761
4095 2633 3722
4095 2570 3689
4095 2502 3660
4095 2466 3657
4095 2431 3651
4095 2423 3649
4095 2408 3640
4095 2381 3621
4095 2346 3600
4095 2288 3581
4095 2237 3570
4095 2161 3537
4095 2112 3502
4095 2024 3453
4095 1886 3397
4095 1767 3354
4095 1665 3311
4095 1630 3309
4095 1654 3338
4095 1766 3384
4095 1840 3397
4095 1742 3349
4095 1568 3239
4083 1411 3132
4076 1285 3059
4078 1401 3165
4095 1737 3386
4095 2118 3529
4095 2280 3612
4095 2252 3597
4095 2203 3558
4095 2130 3503
4095 2084 3468
4095 2109 3484
4095 2170 3527
4095 2228 3569
4095 2267 3597
4095 2323 3626
4095 2346 3644
4095 2427 3675
4095 2579 3707
4095 2731 3743
4095 2906 3781
4095 2992 3810
4095 3056 3826
4095 3043 3828
4095 3031 3824
4095 3089 3825
4095 3154 3830
4095 3202 3841
4095 3220 3851
4095 3220 3859
4095 3200 3861
4095 3172 3858
4095 3153 3855
4095 3144 3849
4095 3129 3838
4095 3117 3829
4095 3101 3821
4095 3091 3818
4095 3083 3818
4095 3063 3821
4095 3045 3825
4095 3037 3826
4095 3044 3824
4095 3052 3821
4095 3044 3819
4095 3039 3818
4095 3050 3821
4095 3068 3826
4095 3120 3838
4095 3172 3857
4095 3218 3871
4095 3242 3875
4095 3241 3875
4095 3232 3874
4095 3216 3873
4095 3191 3870
4095 3172 3865
4095 3153 3856
4095 3135 3848
4095 3125 3842
4095 3106 3833
4095 3093 3826
4095 3088 3824
4095 3093 3828
4095 3107 3837
4095 3127 3848
4095 3142 3857
4095 3147 3855
4095 3142 3840
4095 3123 3822
4095 3083 3812
4095 3048 3809
4095 3044 3816
4095 3065 3830
4095 3049 3832
4095 3008 3821
4095 2944 3795
4095 2874 3766
4095 2807 3742
4095 2747 3725
4095 2732 3731
4095 2685 3720
4095 2635 3695
4095 2558 3667
4095 2478 3646
4095 2413 3629
4095 2321 3600
4095 2264 3578
4095 2172 3528
4095 2091 3483
4095 2008 3450
4095 1936 3428
4095 1910 3422
4095 1867 3402
4095 1841 3385
4095 1794 3352
4095 1738 3310
4095 1688 3260
4095 1644 3234
4095 1626 3243
4095 1621 3252
4095 1637 3262
4095 1648 3268
4095 1641 3268
4095 1625 3261
4095 1606 3246
4095 1592 3229
4095 1589 3230
4095 1603 3250
4095 1616 3273
4095 1617 3283
4095 1607 3281
4091 1588 3267
4086 1567 3248
4077 1536 3220
4068 1510 3193
4064 1488 3173
4064 1468 3171
4065 1465 3186
4065 1478 3198
4068 1501 3205
4069 1507 3204
4068 1488 3196
4067 1458 3179
4066 1439 3155
4063 1432 3133
4056 1412 3093
4027 1400 3055
4012 1386 3026
4022 1377 3018
4040 1372 3027
4046 1367 3045
4042 1366 3066
4016 1347 3070
3982 1324 3058
3942 1289 3028
3912 1247 2990
3897 1216 2953
3887 1197 2921
3891 1199 2913
3885 1198 2900
3874 1192 2891
3856 1191 2877
3835 1202 2856
3815 1214 2835
3787 1224 2806
3769 1230 2784
3733 1207 2766
3693 1164 2761
3659 1112 2761
3637 1061 2756
3634 1033 2753
3635 1049 2758
3642 1105 2770
3652 1143 2769
3664 1122 2753
3670 1096 2731
3666 1105 2708
3654 1133 2695
3637 1172 2706
3621 1197 2732
3621 1242 2779
3627 1267 2810
3661 1323 2859
3725 1438 2948
3797 1561 3024
3906 1790 3179
3988 1990 3304
4051 2201 3434
4076 2351 3521
4083 2448 3579
4095 2551 3641
4095 2580 3671
4095 2683 3697
4095 2777 3716
4095 2922 3754
4095 3059 3818
4095 3177 3856
4095 3332 3899
4095 3433 3917
4095 3513 3934
4095 3558 3943
4095 3551 3945
4095 3505 3939
4095 3439 3926
4095 3362 3905
4095 3329 3888
4095 3298 3881
4095 3283 3880
4095 3261 3880
4095 3187 3860
4095 3110 3845
4095 3023 3835
4095 2982 3837
4095 2957 3842
4095 2944 3836
4095 2949 3834
4095 2957 3848
4095 2970 3867
4095 2984 3879
4095 2997 3879
4095 2997 3874
4095 2977 3867
4095 2950 3859
4095 2934 3860
4095 2935 3869
4095 2922 3873
4095 2906 3868
4095 2878 3857
4095 2846 3839
4095 2823 3824
4095 2797 3830
4095 2784 3859
4095 2751 3897
4095 2708 3921
4095 2660 3933
4095 2605 3929
4095 2570 3913
4095 2536 3913
4095 2530 3925
4095 2517 3939
4095 2503 3952
4095 2479 3951
4095 2427 3921
4095 2375 3875
4095 2310 3824
4095 2261 3792
4095 2226 3792
4095 2215 3831
4031 2226 3859
3976 2227 3864
3950 2225 3855
3890 2299 3880
3842 2402 3906
3796 2555 3935
3767 2719 3958
3764 2838 3973
3745 2960 3988
3727 3002 3989
3702 3047 3993
3663 3079 4003
3670 3095 4007
3748 3110 4004
3870 3103 4004
4031 3066 4001
4095 3004 3987
4095 2947 3957
4095 2919 3920
4095 2908 3904
4095 2905 3901
4095 2917 3915
4095 2926 3916
4095 2934 3908
4095 2937 3896
4095 2929 3888
4095 2915 3877
4095 2890 3857
4095 2868 3837
4095 2877 3814
4095 2907 3806
4095 2949 3803
4095 2994 3804
4095 3034 3808
4095 3070 3819
4095 3082 3832
4095 3089 3840
4095 3093 3839
4095 3075 3833
4095 3037 3826
4095 2996 3823
4095 2955 3814
4095 2934 3811
4095 2926 3807
4095 2930 3799
4095 2954 3800
4095 2997 3816
4095 3044 3833
4095 3085 3850
4095 3095 3857
4095 3108 3863
4095 3143 3874
4095 3145 3871
4095 3100 3848
4095 3014 3817
4095 2737 3729
4095 2359 3596
4095 1979 3417
4095 1693 3285
4092 1606 3232
4095 1673 3305
4095 1894 3430
4095 2280 3620
4095 2644 3748
4095 2947 3828
4095 3099 3859
4095 3131 3865
4095 3156 3877
4095 3137 3876
4095 3095 3867
4095 3049 3854
4095 3009 3842
4095 2991 3836
4095 2995 3833
4095 3034 3836
4095 3110 3850
4095 3035 3825
4095 2837 3768
4095 2497 3626
4095 2146 3415
4095 1911 3252
4038 1739 3009
4006 1736 2937
4008 1793 2938
4016 1845 2975
4025 1928 3066
4056 2029 3140
4082 2106 3193
4095 2202 3277
4095 2256 3316
4095 2318 3367
4095 2387 3428
4095 2427 3466
4095 2446 3485
4095 2429 3472
4095 2364 3428
4095 2283 3371
4095 2190 3310
4095 2103 3254
4095 2045 3215
4083 1984 3171
4075 1963 3160
4052 1919 3113
4025 1853 3031
4011 1824 2977
4016 1872 2998
4039 1960 3076
4077 2065 3174
4095 2146 3261
4095 2186 3311
4095 2175 3320
4086 2115 3285
4050 2039 3203
4014 1966 3111
3969 1879 3008
3939 1821 2953
3943 1786 2925
3970 1785 2921
4021 1815 2956
4036 1861 3020
4057 1899 3082
4079 1946 3150
4078 1966 3183
4087 2013 3220
4095 2106 3264
4095 2179 3283
4095 2211 3303
4095 2198 3318
4095 2135 3301
4095 2043 3253
4068 1942 3159
4039 1852 3042
4036 1802 2954
3993 1798 2949
3941 1842 3024
3892 1938 3164
3860 2033 3285
3817 2130 3393
3775 2237 3484
3756 2289 3519
3729 2299 3529
3719 2264 3504
3688 2177 3446
3649 2101 3384
3596 2021 3319
3522 1923 3242
3470 1863 3192
3432 1837 3171
3433 1853 3186
3480 1925 3241
3561 2046 3321
3633 2146 3385
3660 2156 3396
3640 2088 3359
3616 2029 3325
3592 1998 3302
3588 2010 3307
3613 2067 3351
3653 2145 3407
3687 2213 3445
3703 2242 3449
3726 2276 3475
3751 2305 3514
3767 2312 3539
3779 2296 3529
3770 2258 3495
3708 2172 3437
3625 2094 3378
3532 2010 3311
3463 1941 3255
3450 1925 3235
3495 1970 3251
3580 2057 3300
3676 2177 3399
3738 2279 3500
3783 2331 3551
3799 2337 3549
3770 2289 3505
3700 2173 3423
3611 2048 3326
3533 1970 3256
3505 1981 3248
3530 2047 3291
3592 2117 3348
3672 2193 3420
3727 2273 3492
3747 2308 3528
3777 2335 3554
3810 2347 3559
3812 2326 3541
3770 2276 3510
3707 2205 3472
3653 2151 3413
3622 2138 3379
3620 2143 3363
3656 2169 3377
3691 2189 3400
3695 2194 3425
3674 2171 3431
3588 2054 3353
3474 1896 3225
3355 1767 3099
3284 1714 3030
3307 1761 3046
3434 1901 3137
3590 2086 3278
3719 2244 3416
3778 2297 3491
3797 2306 3514
3768 2271 3479
3720 2208 3412
3695 2172 3399
3690 2169 3430
3704 2209 3479
3747 2291 3519
3760 2312 3525
3719 2228 3477
3659 2093 3376
3583 1994 3298
3530 1959 3269
3489 1944 3257
3487 1965 3280
3493 1988 3302
3478 1978 3295
3467 1955 3273
3481 1941 3258
3510 1938 3253
3531 1933 3247
3523 1917 3239
3517 1921 3240
3529 1947 3239
3555 1994 3253
3619 2097 3321
3686 2201 3403
3761 2307 3496
3827 2382 3565
3858 2411 3599
3861 2383 3583
3827 2313 3527
3775 2243 3464
3731 2196 3405
3702 2177 3372
3709 2188 3387
3734 2224 3437
3748 2264 3485
3754 2290 3519
3729 2277 3508
3687 2219 3445
3637 2157 3356
3601 2134 3309
3589 2139 3302
3604 2148 3320
3642 2167 3363
3638 2135 3363
3578 2048 3304
3523 1976 3250
3522 1968 3249
3557 2016 3288
3586 2111 3348
3596 2216 3403
3628 2282 3449
3628 2279 3464
3686 2217 3446
3853 2134 3411
4002 2053 3363
4073 1933 3286
4080 1842 3235
4084 1732 3146
