dist/luts/spring.3dl
# Converted by LutConverter
0 204 409 613 818 1023
0 0 0
0 0 92
0 0 320
0 0 544
0 0 772
0 0 1000
0 104 0
0 100 88
0 104 320
0 104 544
0 104 772
0 104 1000
0 364 0
0 364 92
0 364 320
0 364 548
0 364 772
0 364 1000
0 620 0
0 620 92
0 620 316
0 620 544
0 624 772
0 620 1000
0 880 0
0 880 92
0 880 316
0 880 548
0 880 772
0 880 1000
0 1020 0
0 1020 88
0 1020 320
0 1020 544
0 1020 772
0 1020 1000
116 0 0
116 0 92
120 0 320
116 0 548
116 0 772
116 0 1000
116 104 0
116 104 92
116 104 316
116 104 544
116 104 772
116 104 1000
116 364 0
116 360 92
116 364 316
116 360 544
116 364 772
116 364 1000
116 620 0
116 620 92
116 620 316
116 624 548
116 620 772
116 620 1000
120 884 0
116 880 92
116 880 320
116 880 548
116 880 772
116 880 1000
116 1020 0
116 1020 88
116 1020 320
116 1020 544
116 1020 772
116 1020 1000
408 0 0
408 0 92
404 0 316
408 0 544
404 0 772
404 0 1000
404 104 0
408 104 92
408 104 320
408 104 548
408 104 772
404 104 1000
404 360 0
408 364 92
408 364 320
404 360 544
404 360 772
408 364 1000
408 624 0
408 624 92
408 624 320
408 624 548
408 620 772
408 620 1000
408 880 0
408 880 92
408 880 316
408 880 548
404 880 772
408 880 1000
404 1020 0
404 1020 88
408 1020 320
408 1020 544
408 1020 772
408 1020 1000
696 0 0
696 0 88
696 0 320
696 0 548
696 0 772
700 0 1000
696 104 0
696 104 92
696 104 320
696 104 548
700 104 776
696 104 1000
696 360 0
696 360 88
696 360 316
696 364 548
696 360 772
696 364 1000
696 620 0
696 620 88
696 620 316
696 620 544
696 620 772
696 620 1000
696 880 0
696 880 92
696 880 316
696 880 548
696 880 772
696 880 1000
696 1020 0
696 1020 92
696 1020 320
696 1020 548
696 1020 772
700 1020 1000
988 0 0
988 0 92
984 0 316
984 0 544
988 0 776
988 0 1000
988 104 0
984 104 88
988 104 320
988 104 548
988 104 776
988 104 1000
984 360 0
988 364 92
984 360 316
984 360 544
988 360 772
988 364 1000
988 624 0
988 624 92
988 620 320
988 624 548
988 624 776
988 620 1000
988 884 0
984 880 88
988 880 320
988 880 548
988 880 772
988 880 1000
984 1020 0
988 1020 92
988 1020 316
988 1020 548
988 1020 772
984 1020 996
1020 0 0
1020 0 88
1020 0 316
1020 0 548
1020 0 772
1020 0 1000
1020 104 0
1020 104 92
1020 104 320
1020 104 544
1020 104 772
1020 104 1000
1020 364 0
1020 364 92
1020 364 320
1020 364 544
1020 360 772
1020 364 1000
1020 620 0
1020 620 92
1020 624 320
1020 624 548
1020 620 772
1020 624 1000
1020 880 0
1020 880 88
1020 880 316
1020 880 544
1020 880 772
1020 880 1000
1020 1020 0
1020 1020 88
1020 1020 316
1020 1020 544
1020 1020 772
1020 1020 1000
