dist/luts/spring.3dl
# Converted by LutConverter
0 68 136 204 272 341 409 477 545 613 682 750 818 886 954 1023
0 0 0
0 0 0
0 0 12
0 0 92
0 0 168
0 0 240
0 0 320
0 0 392
0 0 468
0 0 544
0 0 624
0 0 696
0 0 772
0 0 848
0 0 924
0 0 1000
0 0 0
0 0 0
0 0 16
0 0 88
0 0 168
0 0 244
0 0 320
0 0 392
0 0 472
0 0 544
0 0 624
0 0 700
0 0 776
0 0 852
0 0 924
0 0 1000
0 20 0
0 16 0
0 16 16
0 16 88
0 16 168
0 16 240
0 16 320
0 16 392
0 16 468
0 16 544
0 16 620
0 16 696
0 16 772
0 16 848
0 16 924
0 16 1000
0 104 0
0 104 0
0 104 12
0 100 88
0 104 168
0 104 244
0 104 320
0 104 396
0 104 472
0 104 544
0 104 620
0 104 700
0 104 772
0 104 848
0 104 924
0 104 1000
0 192 0
0 188 0
0 192 16
0 188 92
0 188 164
0 188 240
0 192 320
0 188 392
0 192 468
0 188 544
0 192 624
0 188 696
0 188 772
0 192 848
0 192 924
0 188 996
0 276 0
0 276 0
0 276 16
0 280 92
0 276 168
0 276 244
0 276 316
0 276 396
0 276 468
0 276 544
0 276 620
0 276 696
0 276 776
0 276 848
0 276 924
0 276 1000
0 364 0
0 364 0
0 360 16
0 364 92
0 364 168
0 364 244
0 364 320
0 360 392
0 364 472
0 364 548
0 364 620
0 364 696
0 364 772
0 360 848
0 360 924
0 364 1000
0 448 0
0 448 0
0 448 16
0 448 92
0 448 164
0 448 240
0 448 320
0 448 392
0 448 468
0 448 544
0 448 620
0 448 696
0 452 776
0 448 848
0 448 924
0 448 1000
0 532 0
0 536 0
0 536 16
0 536 88
0 536 168
0 536 244
0 536 316
0 536 396
0 532 468
0 532 544
0 536 620
0 536 700
0 536 772
0 536 848
0 536 924
0 532 1000
0 620 0
0 620 0
0 620 12
0 620 92
0 620 164
0 620 240
0 620 316
0 624 396
0 624 472
0 620 544
0 624 624
0 624 696
0 624 772
0 620 848
0 620 924
0 620 1000
0 708 0
0 708 0
0 708 12
0 708 92
0 708 164
0 708 240
0 708 316
0 708 392
0 708 472
0 708 548
0 708 620
0 704 696
0 708 772
0 708 848
0 708 924
0 708 1000
0 796 0
0 792 0
0 792 12
0 792 88
0 792 168
0 792 240
0 796 320
0 792 392
0 792 468
0 792 544
0 792 620
0 796 700
0 792 772
0 792 848
0 792 924
0 796 1000
0 880 0
0 880 0
0 880 16
0 880 92
0 880 164
0 880 240
0 880 316
0 880 392
0 880 472
0 880 548
0 880 620
0 880 696
0 880 772
0 880 848
0 880 924
0 880 1000
0 968 0
0 968 0
0 968 16
0 968 92
0 968 168
0 964 240
0 964 316
0 968 396
0 964 468
0 964 544
0 968 620
0 964 696
0 964 772
0 964 848
0 968 924
0 968 1000
0 1020 0
0 1020 0
0 1020 16
0 1020 92
0 1020 168
0 1020 244
0 1020 316
0 1020 392
0 1020 468
0 1020 544
0 1020 620
0 1020 696
0 1020 772
0 1020 852
0 1020 924
0 1020 1000
0 1020 0
0 1020 0
0 1020 16
0 1020 88
0 1020 168
0 1020 240
0 1020 320
0 1020 392
0 1020 468
0 1020 544
0 1020 620
0 1020 696
0 1020 772
0 1020 848
0 1020 924
0 1020 1000
0 0 0
0 0 0
0 0 16
0 0 92
0 0 168
0 0 240
0 0 320
0 0 392
0 0 468
0 0 544
0 0 624
0 0 696
0 0 772
0 0 848
0 0 924
0 0 1000
0 0 0
0 0 0
0 0 16
0 0 92
0 0 164
0 0 240
0 0 316
0 0 396
0 0 472
0 0 544
0 0 624
0 0 696
0 0 772
0 0 848
0 0 924
0 0 1000
0 16 0
0 20 0
0 16 12
0 16 88
0 16 168
0 16 240
0 20 320
0 20 396
0 16 468
0 16 544
0 16 620
0 16 696
0 20 772
0 20 848
0 16 924
0 16 1000
0 104 0
0 104 0
0 104 16
0 100 88
0 104 168
0 104 240
0 104 316
0 104 396
0 100 468
0 104 544
0 104 620
0 100 696
0 104 772
0 104 848
0 104 924
0 100 996
0 188 0
0 192 0
0 192 16
0 192 92
0 188 168
0 188 244
0 192 320
0 192 396
0 188 468
0 188 544
0 192 624
0 192 700
0 192 776
0 192 852
0 188 924
0 192 1000
0 276 0
0 276 0
0 276 16
0 280 92
0 276 164
0 276 240
0 276 320
0 280 396
0 276 468
0 276 544
0 276 620
0 276 696
0 276 772
0 276 852
0 276 924
0 276 1000
0 360 0
0 364 0
0 360 12
0 360 92
0 364 168
0 360 240
0 364 320
0 360 392
0 364 472
0 364 544
0 360 620
0 364 696
0 360 772
0 364 848
0 360 924
0 360 1000
0 448 0
0 448 0
0 448 16
0 448 88
0 448 168
0 448 240
0 448 320
0 448 396
0 448 468
0 452 548
0 448 620
0 448 696
0 452 772
0 448 848
0 448 924
0 448 1000
0 532 0
0 536 0
0 536 16
0 532 88
0 536 168
0 532 240
0 536 316
0 536 396
0 536 468
0 536 548
0 532 620
0 536 696
0 536 772
0 536 848
0 536 924
0 536 1000
0 620 0
0 624 0
0 624 16
0 620 92
0 624 168
0 620 240
0 624 320
0 620 392
0 624 472
0 620 544
0 620 620
0 624 696
0 620 772
0 620 848
0 620 924
0 624 1000
0 708 0
0 708 0
0 708 16
0 708 92
0 708 164
0 708 240
0 708 320
0 708 392
0 708 468
0 708 548
0 708 620
0 708 696
0 708 772
0 708 848
0 708 924
0 708 1000
0 796 0
0 796 0
0 792 16
0 796 92
0 792 168
0 792 240
0 792 316
0 792 392
0 792 468
0 792 544
0 796 624
0 792 696
0 792 772
0 796 848
0 796 924
0 792 1000
0 880 0
0 880 0
0 880 16
0 880 92
0 880 168
0 880 244
0 880 316
0 880 392
0 880 468
0 880 544
0 880 620
0 880 696
0 880 772
0 880 848
0 880 924
0 880 1000
0 968 0
0 968 0
0 968 16
0 964 88
0 968 168
0 968 244
0 964 316
0 968 396
0 968 468
0 968 544
0 964 620
0 964 696
0 964 772
0 968 848
0 964 924
0 968 1000
0 1020 0
0 1020 0
0 1020 12
0 1020 88
0 1020 164
0 1020 240
0 1020 320
0 1020 392
0 1020 472
0 1020 548
0 1020 620
0 1020 700
0 1020 772
0 1020 848
0 1020 924
0 1020 1000
0 1020 0
0 1020 0
0 1020 16
0 1020 92
0 1020 164
0 1020 244
0 1020 316
0 1020 396
0 1020 472
0 1020 544
0 1020 620
0 1020 696
0 1020 772
0 1020 848
0 1020 924
0 1020 1000
20 0 0
20 0 0
20 0 16
20 0 92
20 0 164
20 0 240
20 0 320
20 0 392
20 0 472
16 0 544
20 0 620
16 0 696
20 0 772
20 0 848
20 0 924
16 0 996
20 0 0
20 0 0
16 0 12
20 0 92
20 0 168
20 0 244
16 0 316
20 0 392
20 0 472
20 0 544
20 0 620
20 0 696
20 0 772
20 0 848
20 0 924
20 0 1000
20 16 0
20 20 0
20 20 16
20 16 88
20 20 168
20 20 244
16 16 316
20 16 396
20 16 468
20 16 544
20 20 624
16 16 696
20 20 776
20 20 848
16 16 924
16 16 1000
20 104 0
20 104 0
20 104 16
20 104 88
20 104 164
20 104 240
20 104 320
20 104 392
20 104 468
20 104 544
16 100 620
20 104 700
20 104 772
20 104 848
20 104 924
16 104 1000
20 192 0
20 192 0
20 188 16
16 188 88
20 192 168
20 192 244
20 188 316
20 188 392
20 188 468
20 192 548
20 192 620
16 188 696
20 188 772
20 188 848
20 192 924
20 192 1000
20 276 0
20 276 0
20 276 16
20 276 92
20 276 168
20 276 240
20 276 320
20 276 396
20 276 468
20 276 548
20 276 620
16 276 696
20 276 772
20 276 848
20 276 924
20 276 1000
20 364 0
20 364 0
20 360 16
20 364 92
20 364 168
20 364 244
20 364 316
20 364 396
20 364 472
20 364 544
20 364 624
20 360 696
20 360 772
20 364 848
20 364 924
20 364 1000
16 448 0
20 448 0
20 448 16
20 448 88
20 448 168
16 448 240
20 452 320
20 452 396
20 448 472
20 448 544
20 448 624
20 448 696
20 448 772
20 452 848
20 448 924
20 448 1000
20 536 0
20 536 0
20 536 16
20 536 92
20 536 168
20 536 244
20 536 320
20 536 392
20 536 468
16 532 544
20 536 624
20 536 696
20 536 772
20 536 848
16 532 924
20 536 1000
20 620 0
16 620 0
20 624 16
20 620 92
16 620 164
20 624 244
16 620 316
20 620 392
20 624 472
20 624 548
20 620 620
20 620 696
20 620 772
20 620 848
20 624 924
20 620 1000
20 708 0
20 708 0
20 708 16
20 708 92
20 708 164
20 708 244
20 708 320
16 704 392
20 708 472
20 708 544
20 708 624
20 708 700
16 704 772
20 708 848
20 708 924
20 708 1000
20 792 0
20 792 0
16 792 12
16 792 88
20 792 164
20 792 240
20 796 320
20 796 396
20 796 468
20 792 544
20 796 624
16 792 696
20 796 772
20 792 848
20 792 924
20 796 1000
20 880 0
20 880 0
20 880 16
20 880 92
20 880 168
20 880 240
16 880 316
20 880 396
20 880 468
16 880 544
20 880 620
20 880 696
20 880 772
20 880 848
20 880 924
20 880 1000
20 968 0
16 964 0
20 968 16
20 968 92
20 968 168
20 964 240
20 964 316
16 964 392
16 964 468
20 968 548
20 968 624
16 964 696
20 968 776
16 964 848
20 964 924
20 968 1000
20 1020 0
20 1020 0
20 1020 16
20 1020 92
20 1020 168
20 1020 240
20 1020 320
20 1020 396
20 1020 468
20 1020 544
20 1020 624
20 1020 700
20 1020 776
20 1020 848
20 1020 924
20 1020 1000
20 1020 0
20 1020 0
20 1020 16
20 1020 92
20 1020 168
20 1020 244
16 1020 316
20 1020 392
20 1020 472
20 1020 544
20 1020 620
20 1020 696
20 1020 776
20 1020 848
20 1020 924
20 1020 1000
116 0 0
116 0 0
116 0 12
116 0 92
116 0 168
116 0 240
120 0 320
116 0 396
116 0 468
116 0 548
116 0 620
116 0 696
116 0 772
116 0 848
116 0 924
116 0 1000
116 0 0
116 0 0
116 0 16
116 0 92
116 0 168
116 0 240
116 0 320
116 0 396
116 0 472
116 0 544
116 0 620
116 0 696
116 0 772
116 0 848
116 0 924
116 0 1000
116 16 0
116 16 0
116 16 16
116 20 92
116 16 168
116 16 240
116 20 320
116 20 396
116 20 472
116 16 544
116 16 620
116 16 696
116 16 772
116 16 848
116 16 924
116 20 1000
116 104 0
116 104 0
116 104 16
116 104 92
116 104 164
116 104 244
116 104 316
116 104 392
116 104 468
116 104 544
116 104 620
116 104 696
116 104 772
116 104 848
116 104 924
116 104 1000
116 188 0
116 192 0
116 188 12
116 192 92
116 188 164
116 188 240
116 188 316
116 192 396
116 192 472
116 188 544
116 192 624
116 192 696
116 188 772
116 188 848
116 188 924
116 192 1000
116 276 0
116 276 0
116 276 16
116 276 92
116 276 164
116 276 244
116 276 320
116 276 396
120 280 472
116 276 544
116 276 620
116 276 696
116 276 772
116 276 848
116 276 924
116 276 1000
116 364 0
116 360 0
116 360 16
116 360 92
116 360 164
116 360 240
116 364 316
116 364 396
116 360 468
116 360 544
116 360 620
116 364 696
116 364 772
116 360 848
116 360 924
116 364 1000
116 448 0
116 448 0
116 448 12
116 452 92
116 448 168
116 452 244
116 448 316
116 448 396
116 452 472
116 448 544
116 448 620
116 448 700
116 448 772
116 448 848
116 448 924
116 448 1000
116 536 0
116 536 0
116 536 16
116 532 88
