dist/luts/summer.3dl
# Converted by LutConverter
0 204 409 613 818 1023
0 0 0
0 0 148
0 0 376
0 0 560
0 0 700
0 0 812
0 144 0
0 148 160
0 148 408
0 140 604
0 168 744
0 184 852
0 372 0
0 388 180
0 412 464
0 416 668
0 424 796
0 428 900
0 552 0
0 572 184
0 596 484
0 608 692
0 612 820
0 612 920
0 684 0
0 700 232
0 724 516
0 732 704
0 736 824
0 736 928
0 792 0
0 808 248
0 832 524
0 836 708
0 840 828
0 844 932
148 0 0
152 0 152
144 0 392
136 0 576
140 0 720
144 0 832
160 156 0
160 164 168
144 168 428
140 160 628
132 196 768
132 212 876
140 412 0
132 432 176
132 452 480
132 460 692
132 472 824
132 476 928
132 612 0
132 632 168
132 656 504
132 668 720
132 672 844
132 672 948
148 756 0
132 776 232
132 800 540
132 804 736
132 804 856
132 808 956
152 864 0
132 888 252
132 908 548
132 916 736
132 920 860
132 916 960
420 0 0
432 0 148
436 0 408
440 0 608
464 0 756
476 0 868
476 160 0
488 176 156
500 176 452
504 164 664
516 224 808
516 244 916
552 476 0
564 504 144
556 540 504
540 548 732
540 560 864
540 568 968
584 712 0
588 744 140
560 784 524
536 800 760
528 800 888
528 800 988
596 848 0
588 880 176
560 908 556
540 924 768
528 924 888
532 924 992
600 948 0
592 984 216
564 1012 564
548 1020 768
540 1020 892
536 1020 992
648 0 0
660 0 136
672 0 412
676 0 620
704 0 768
720 0 884
708 140 0
728 148 144
740 148 452
748 152 672
768 200 820
772 232 928
808 484 0
824 512 136
824 548 500
824 560 740
824 568 876
824 580 980
856 740 0
868 772 132
856 812 516
852 828 764
848 828 900
844 828 1000
868 876 0
872 912 156
856 940 552
852 956 776
844 956 904
848 960 1004
868 980 0
868 1012 164
856 1020 568
852 1020 780
844 1020 904
848 1020 1004
788 0 0
800 0 140
808 0 416
812 0 620
844 0 776
860 0 892
848 144 0
864 148 144
876 156 460
884 156 680
904 216 828
908 244 932
940 492 0
960 524 136
960 556 504
960 568 744
960 580 880
964 588 984
992 748 0
996 784 132
992 820 520
992 836 768
988 836 904
988 836 1004
996 892 0
992 920 156
992 952 556
992 964 776
992 964 904
988 964 1004
992 992 0
992 1020 164
992 1020 564
992 1020 780
988 1020 904
988 1020 1004
888 0 0
904 0 136
912 0 416
920 0 628
948 0 780
964 0 892
952 144 0
968 152 148
980 156 460
988 156 680
1008 224 828
1012 256 936
1020 500 0
1020 528 136
1020 564 508
1020 576 744
1020 584 880
1020 592 984
1020 748 0
1020 784 132
1020 824 524
1020 836 768
1020 836 900
1020 836 1004
1020 888 0
1020 924 156
1020 948 552
1020 964 776
1020 964 904
1020 964 1004
1020 996 0
1020 1020 164
1020 1020 564
1020 1020 776
1020 1020 908
1020 1020 1008
