dist/luts/summer.3dl
# Converted by LutConverter
0 68 136 204 272 341 409 477 545 613 682 750 818 886 954 1023
0 0 0
0 0 20
0 0 84
0 0 148
0 0 220
0 0 300
0 0 376
0 0 444
0 0 504
0 0 560
0 0 608
0 0 652
0 0 700
0 0 744
0 0 776
0 0 812
0 20 0
0 20 20
0 20 84
0 16 148
0 20 224
0 20 304
0 20 380
0 16 448
0 20 512
0 20 564
0 20 612
0 20 660
0 20 708
0 20 752
0 20 784
0 20 816
0 84 0
0 84 20
0 84 84
0 84 152
0 84 232
0 80 312
0 84 392
0 80 464
0 80 528
0 80 584
0 80 632
0 80 676
0 84 728
0 92 768
0 92 800
0 92 836
0 144 0
0 148 24
0 144 88
0 148 160
0 152 244
0 152 332
0 148 408
0 144 484
0 140 548
0 140 604
0 144 656
0 148 700
0 168 744
0 180 784
0 184 820
0 184 852
0 216 4
0 212 20
0 220 96
0 224 168
0 228 252
0 228 344
0 236 428
0 232 504
0 232 572
0 232 628
0 236 676
0 240 720
0 252 760
0 264 804
0 268 836
0 264 864
0 292 0
0 292 20
0 300 96
0 308 176
0 312 268
0 320 360
0 320 444
0 324 524
0 328 592
0 328 648
0 328 696
0 332 740
0 344 780
0 344 816
0 348 848
0 348 884
0 372 0
0 372 20
0 380 88
0 388 180
0 396 272
0 404 372
0 412 464
0 412 540
0 416 612
0 416 668
0 416 716
0 420 756
0 424 796
0 428 832
0 428 864
0 428 900
0 440 0
0 444 20
0 452 84
0 460 180
0 468 280
0 476 380
0 484 472
0 488 552
0 492 624
0 492 680
0 492 724
0 496 768
0 500 808
0 500 840
0 500 876
0 500 908
0 500 0
0 504 20
0 512 84
0 520 180
0 532 284
0 540 388
0 548 480
0 552 560
0 556 628
0 556 688
0 560 736
0 560 780
0 560 816
0 564 852
0 560 884
0 560 916
0 552 0
0 552 16
0 560 84
0 572 184
0 580 292
0 588 392
0 596 484
0 604 568
0 608 636
0 608 692
0 608 740
0 612 780
0 612 820
0 612 852
0 608 884
0 612 920
0 596 0
0 596 16
0 604 88
0 616 192
0 624 300
0 632 400
0 640 492
0 644 572
0 648 640
0 652 696
0 652 740
0 652 780
0 652 820
0 656 856
0 656 888
0 656 924
0 636 0
0 640 16
0 648 92
0 656 208
0 668 316
0 672 412
0 684 504
0 684 580
0 688 644
0 688 696
0 692 744
0 696 788
0 692 820
0 692 856
0 692 892
0 696 924
0 684 0
0 684 24
0 692 120
0 700 232
0 708 332
0 716 428
0 724 516
0 728 588
0 732 652
0 732 704
0 732 748
0 736 792
0 736 824
0 740 864
0 736 896
0 736 928
0 724 0
0 728 24
0 736 140
0 744 248
0 752 348
0 756 440
0 764 520
0 772 600
0 772 656
0 772 708
0 776 752
0 776 792
0 776 828
0 776 864
0 780 900
0 776 932
0 756 0
0 760 20
0 768 140
0 780 252
0 784 348
0 796 444
0 796 524
0 804 596
0 804 656
0 804 708
0 808 756
0 808 792
0 808 828
0 816 868
0 812 896
0 816 932
0 792 0
0 792 24
0 804 140
0 808 248
0 820 352
0 824 440
0 832 524
0 832 596
0 836 656
0 836 708
0 840 752
0 840 792
0 840 828
0 844 868
0 844 900
0 844 932
20 0 0
20 0 20
20 0 84
20 0 148
20 0 224
16 0 300
20 0 376
16 0 444
20 0 508
20 0 560
20 0 608
20 0 652
16 0 700
20 0 748
20 0 780
16 0 812
20 20 0
20 20 20
20 20 88
20 20 148
16 16 224
16 16 300
20 20 380
20 20 448
20 20 512
16 16 564
20 20 616
20 20 660
20 20 708
16 16 748
20 20 788
20 20 820
20 84 0
20 88 20
16 84 84
16 84 152
20 84 232
16 80 312
20 84 396
20 84 468
16 80 528
16 80 584
20 80 636
16 84 680
20 88 728
20 96 772
20 96 804
20 96 836
20 148 4
20 148 24
16 148 88
16 148 160
20 152 244
16 152 328
20 148 412
20 144 484
16 140 548
20 144 608
16 140 656
16 148 700
20 168 748
16 180 784
16 184 820
16 180 852
16 212 0
20 216 24
20 220 96
20 224 172
20 228 256
20 232 344
20 236 432
20 236 508
20 236 572
20 236 628
20 240 680
20 244 724
20 256 764
20 268 804
20 268 836
20 268 872
16 292 0
16 292 20
20 300 92
20 308 176
16 312 264
16 320 360
20 324 448
20 328 528
20 328 596
16 328 652
16 332 700
20 336 740
20 344 784
20 352 820
16 348 852
20 352 888
16 372 0
20 376 20
16 380 88
16 388 176
20 400 276
16 404 372
20 412 464
16 412 540
20 420 612
20 420 668
16 420 716
20 424 760
16 424 796
20 432 836
16 432 868
16 432 900
20 444 0
20 448 20
16 456 84
16 464 176
20 472 280
16 480 380
20 488 476
20 492 556
20 496 624
20 500 684
16 496 728
16 500 772
20 504 812
16 504 844
16 504 876
20 504 912
16 504 0
20 508 20
16 516 84
16 524 180
16 536 284
16 544 388
16 552 480
20 560 564
16 560 632
20 564 692
16 560 736
20 564 780
20 564 816
20 568 852
20 568 888
20 568 920
16 556 0
20 560 20
20 568 88
20 576 184
20 588 292
16 596 396
20 604 488
16 604 568
20 612 640
16 612 692
16 612 740
20 616 784
16 616 820
16 616 856
20 616 892
20 616 924
20 600 0
20 604 20
16 612 88
20 620 192
16 628 300
16 636 404
20 648 496
16 652 576
16 652 640
20 656 700
16 656 744
16 656 784
16 660 824
20 660 860
20 660 892
20 664 928
20 644 0
20 648 20
16 656 92
20 664 212
20 672 316
16 680 416
16 688 504
20 692 584
16 696 648
16 696 704
20 700 752
16 700 788
16 700 824
20 704 864
20 704 896
16 700 928
20 692 0
16 692 20
20 704 120
20 712 236
20 720 336
20 728 432
16 732 516
16 736 592
16 740 656
16 740 708
20 744 756
20 744 796
16 744 828
20 748 868
16 744 896
20 748 932
20 736 0
20 736 24
20 748 140
16 752 248
20 760 352
16 768 444
16 772 528
20 780 600
16 780 660
20 784 712
16 784 756
16 784 796
16 784 832
20 788 868
16 788 900
20 788 936
20 768 0
16 768 20
16 780 140
16 788 248
16 796 352
16 800 444
20 808 528
16 812 600
20 816 664
20 820 716
20 816 756
20 820 800
20 820 836
16 820 868
20 820 904
20 824 936
16 796 0
20 804 20
16 812 140
16 820 248
16 828 352
20 836 448
16 840 528
20 848 604
20 848 664
16 848 712
16 848 756
20 852 796
16 852 836
16 852 868
20 856 904
20 856 936
84 0 0
84 0 20
88 0 88
84 0 148
84 0 224
80 0 304
80 0 380
80 0 448
84 0 512
80 0 564
80 0 612
80 0 656
80 0 708
84 0 756
84 0 788
80 0 820
88 20 0
88 20 20
84 20 84
84 20 152
84 20 224
84 20 308
80 16 384
80 16 452
84 20 520
80 16 572
84 20 620
80 16 664
80 20 716
80 20 760
80 20 796
80 20 828
84 84 0
88 88 20
88 88 88
84 88 156
84 92 236
84 88 320
80 84 396
80 84 472
80 80 536
80 84 592
84 84 644
80 84 688
84 92 740
84 104 780
80 104 812
80 104 844
84 152 4
84 152 24
84 156 92
80 156 160
80 156 248
80 156 332
84 156 420
80 148 492
80 144 556
80 144 612
80 144 660
84 156 712
80 176 756
80 188 796
84 196 832
80 192 860
84 224 4
84 224 24
80 228 92
80 232 168
84 236 260
84 240 352
80 240 436
80 240 512
80 240 580
84 244 640
84 244 688
80 252 728
80 264 772
80 276 812
80 280 848
80 280 880
84 304 0
84 308 20
80 312 92
80 316 176
80 324 268
80 328 364
84 336 456
84 340 536
80 336 604
84 340 660
80 340 708
80 344 748
80 356 792
80 364 832
80 364 864
84 364 896
80 384 0
80 388 20
80 396 88
84 404 180
84 412 280
84 420 380
80 424 472
84 432 552
80 432 620
80 432 680
84 436 728
80 436 768
80 440 808
80 448 844
80 448 880
84 448 912
80 460 0
84 464 20
84 472 84
80 480 176
84 492 284
80 496 384
84 508 484
84 512 564
80 512 636
80 512 692
84 516 740
80 516 780
80 520 820
84 524 860
84 524 892
80 524 920
80 524 0
80 524 16
84 536 84
80 544 176
84 556 288
84 564 396
84 572 492
80 576 572
80 580 644
80 580 700
84 584 752
80 584 792
80 584 828
84 588 864
80 584 896
80 588 928
80 576 0
80 576 16
84 588 84
80 596 180
80 608 292
84 620 404
80 620 496
80 628 580
84 632 648
84 636 708
80 636 752
80 636 796
80 640 832
80 640 868
84 640 904
80 640 932
80 624 0
80 628 16
84 636 88
84 644 192
80 652 304
84 664 412
84 672 504
80 672 584
84 680 656
80 680 708
84 680 760
84 684 800
80 680 832
80 684 872
80 684 904
84 684 940
80 672 0
80 672 20
80 680 88
80 688 204
80 700 320
80 708 424
84 716 516
80 720 596
80 724 660
80 724 716
84 728 764
80 724 800
80 728 840
80 728 876
80 728 908
80 728 940
84 720 0
84 724 20
84 736 112
80 740 232
84 752 344
80 756 440
80 760 528
84 768 608
80 768 668
80 768 720
80 772 768
80 772 808
80 776 844
80 776 880
80 776 912
84 776 948
84 768 0
80 768 20
84 780 132
84 788 252
80 796 356
80 800 452
80 808 536
80 808 612
80 812 672
84 816 728
84 816 772
80 816 808
84 820 848
80 816 880
80 820 916
84 820 952
80 800 0
80 804 20
84 816 136
84 824 256
84 832 360
80 836 452
84 844 540
80 844 616
80 848 676
80 848 728
84 852 772
84 852 812
84 856 852
80 852 884
80 856 916
80 852 948
80 832 0
84 836 24
84 848 136
80 852 252
84 864 360
80 868 456
80 872 540
80 880 616
84 884 680
80 880 728
80 880 772
80 884 812
84 888 852
80 884 884
84 888 920
80 884 948
148 0 0
148 0 16
148 0 84
152 0 152
152 0 228
144 0 308
144 0 392
140 0 460
136 0 520
136 0 576
136 0 624
136 0 672
140 0 720
140 0 764
144 0 800
144 0 832
152 20 0
152 20 20
152 20 84
152 20 152
152 20 232
148 16 312
144 20 392
140 20 464
140 20 528
140 20 584
136 16 628
140 20 680
140 20 728
144 20 772
148 20 808
148 24 840
156 88 0
156 88 20
156 92 88
156 92 160
156 92 240
156 88 324
156 88 408
148 84 484
144 84 548
144 84 604
144 84 652
144 88 700
140 104 748
140 124 792
140 124 828
140 128 860
160 156 0
160 156 20
164 160 92
160 164 168
152 168 252
148 172 344
144 168 428
140 168 504
140 160 568
140 160 628
136 164 676
136 176 720
132 196 768
132 212 812
132 212 844
132 212 876
156 232 0
160 236 20
156 240 92
152 248 176
136 252 264
132 260 360
132 260 448
132 264 528
132 264 596
132 260 652
132 268 704
132 272 744
132 288 788
132 296 828
132 296 860
132 300 896
148 324 0
148 328 20
144 336 92
136 340 176
132 348 276
132 356 376
132 360 468
132 360 548
136 364 620
132 360 672
132 364 720
132 368 768
132 376 804
132 384 844
132 388 880
132 388 912
140 412 0
140 412 16
136 424 80
132 432 176
132 436 280
132 444 384
132 452 480
132 456 564
132 456 632
132 460 692
132 460 740
132 464 784
132 472 824
132 472 860
132 472 892
132 476 928
136 488 0
136 492 20
132 500 80
132 512 172
132 520 288
132 532 396
132 536 492
132 540 576
132 544 648
132 544 704
132 548 756
132 548 796
132 548 832
132 552 868
132 552 904
132 552 936
136 556 0
136 560 20
132 572 80
132 576 164
